X:1
T:the Duchess of Roxburghes' Strathspey
T:the Duchess of Roxburghes' Strathspey
T:William Marshall
C:William Marshall
%%score { 1 ( 2 3 ) }
L:1/8
M:4/4
K:Eb
V:1 treble 
V:2 bass 
V:3 bass 
V:1
"^Slow when not danced" E>e.B.G .C.F (TE/D/)(C/B,/) | E>e.B.G .E.b.g.e | %2
 (g/b/)a/g/ (f/e/)d/e/ fF F(G/A/) | BB,CD [B,E]2 [G,E]2 :| (e/g/)f/e/ (d/e/)f/g/ affa | %5
 g>bag fdeB | (A/c/)B/A/ (G/B/)A/G/ cF F(G/A/) | BB,CD [B,E]2 [G,E]2 | (e/g/)f/e/ (d/e/)f/g/ affa | %9
!<(! (g/b/)a/g/ (f/e/)d/c/!<)! (B/A/)G/F/ (E/D/)C/B,/ | A,cG,B CF F!>(!(G/A/) | %11
 BB,CD [B,E]2 [G,E]2!>)! |] %12
V:2
 [Ee]2 [Gg]2 [Aa]2 [Bb]2 | e2 e2 g2 e2 | e2 g2 a2 b2 | b2 af e2 e2 :| e2 b2 B2 b2 | e'2 e2 a2 g2 | %6
 d2 e2 a=ab z | B2 af e2 e2 | e2 b2 B2 b2 | e2 a2 g2 G2 | A2 E2 A=AB z | B2 af e2 e2 |] %12
V:3
 x8 | x8 | x8 | B,,6 E,,2 :| x8 | x8 | x8 | B,,2- B,,2 E,,2 E,,2 | x8 | x8 | x8 | %11
 B,,2- B,,2 E,,2 E,,2 |] %12

